X: 23
T: Golbeza Clad in the Dark
C: Nobuo Uematsu
B: Final Fantasy IV DoReMi
G: Final Fantasy IV
N: Playing Point > To put it bluntly, it's difficult. Especially on days,
N: please practice well so that you can play the 16th note bridge reliably.
N: Please give a solemn and majestic feeling with a baroque-style song idea.
M: 3/4
L: 1/4
Q: 1/4=85
K: G
V:1 clef=treble
[P:A] "Em" [EGB]2 [^CF^A] | [EGB]2 [^CF^A] || [M: C] [EGB]/[F^A^c]/ [GBd]2 [F^A^c] ||
[M: 3/4] "Em" [EGB]3 | "C#m7-5" [EGB]2 [^CF^A] | [EGB]2 [^CF^A] ||
[M: C] "Em/C#" [EGB]/[F^A^c]/ [GBd]2 [F^A^c] || [M: 3/4] [EGB]3 || [P:A'] "Am" [Ace]2 [FB^d] |
"Am" [Ace]2 [FB^d] || [M: C] [Ace]/[B^df]/ [ceg]2 [B^df] || [M: 3/4] [Ace]3 |
V:2 clef=bass
E,,3 | E,,3 || [M:C] E,,4 ||
[M:3/4] E,, F,,/G,,/ A,,/B,,/ | ^C,3 | ^C,3 ||
[M:C] ^C,4 || [M:3/4] z/ ^C,/B,,/^A,,/B,,/^C,/ || A,,3 |
A,,3 || [M:C] A,,4 || [M:3/4] A,, A,,/^G,,/A,,/B,,/ |
% Page 2
V:1
"Am" [Ace]2 [FB^d] | [Ace]2 [FB^d] || [M:C] [Ace]/[B^df]/ [ceg]2 [Bdf] ||
[M: 3/4] "Am" [Ace]3 || [M:C] [P:B] [Q:1/4=104] [L:1/16] "Em" e^deB cABe AeGe FeGe |
"Em" AeB,B ^CB^DB EBDB EBFB | "C#dim" [^CEG_B]16 |
"Em/B" b^abf gefb ebdb ^cbdb | ebFf ^Gf^Af Bf^Af Bf^cf |
"G#dim" [Bd=f^g]16- | [Bd=f^g]16 :|]
V:2
L:1/4
A,,3 | A,,3 || [M:C] A,,4 ||
z/ A,,/^G,,/=G,,/F,,/=F,,/ | E,,4- |
E,,4 | ^C,4 |
B,,4- | B,,4 |
^G,/=F,/D,/=F,/ D,/B,,/D,/B,,/ | ^G,,/B,,/^G,,/=F,,/ G,,/F,,/D,,/B,,,/ :|]

%% TODO: Fingering
